X:14
T:Part II: Realizing Progressions in Keyboard Style
M:4/4
L:1/2
Q:1/4=120
K:G
V:1
[DGB][DAc]|[DGB][EGB]|[GBd][EAc]|[DFA]2|[B,EG][CEG]|[A,DF][DFA]|[DGB][CFA]|[B,DG]2||
V:2
G,F,|G,E,|B,,C,|D,2|E,C,|D,C,|B,,D,|G,2 ||
w:G:~I V6/4 I vi I6 ii6 V vi IV V V4/2 I6 V7 I

